icons/Unity-Light.svg

<svg xmlns="http://www.w3.org/2000/svg" width="256" height="256" fill="none" viewBox="0 0 256 256"><rect width="256" height="256" fill="#F4F2ED" rx="60"/><path fill="#4C4C4C" d="M216.042 167.814V74.7425L135.381 28.2068V63.9876L167.025 82.1882C168.266 82.8087 168.266 84.6701 167.025 85.2906L129.383 107.007C128.348 107.628 126.901 107.628 125.867 107.007L88.2244 85.0838C86.9834 84.4633 86.9834 82.6019 88.2244 81.9814L119.869 63.7808V28L39.2068 74.5357V167.814V167.4V167.814L70.2306 150.027V113.419C70.2306 112.178 71.6783 111.144 72.9193 111.971L110.561 133.688C111.596 134.308 112.423 135.549 112.423 136.79V180.223C112.423 181.464 110.975 182.498 109.734 181.671L78.0899 163.471L47.0661 181.257L127.728 227.793L208.39 181.257L177.366 163.471L145.722 181.671C144.688 182.292 143.033 181.464 143.033 180.223V136.79C143.033 135.549 143.654 134.308 144.894 133.688L182.537 111.971C183.571 111.351 185.225 112.178 185.225 113.419V150.027L216.042 167.814Z"/><path fill="#000" d="M127.521 228L208.183 181.465L177.159 163.678L145.515 181.878C144.481 182.499 142.826 181.671 142.826 180.43V136.997C142.826 135.756 143.447 134.515 144.688 133.895L182.33 112.178C183.364 111.558 185.019 112.385 185.019 113.626V150.234L216.042 168.021V74.7427L127.521 125.829V228Z"/><path fill="gray" d="M135.174 28V63.7808L166.818 81.9814C168.059 82.6019 168.059 84.4633 166.818 85.0838L129.176 106.8C128.142 107.421 126.694 107.421 125.66 106.8L88.2244 85.0838C86.9834 84.4633 86.9834 82.6019 88.2244 81.9814L119.869 63.7808V28L39.2068 74.5357L127.728 125.622L216.249 74.5357L135.174 28Z"/><path fill="#4C4C4C" d="M109.321 181.671L77.6763 163.471L46.6525 181.258L127.314 227.793V125.622L39 74.7427V168.021V167.607V168.021L70.0238 150.234V113.626C70.0238 112.385 71.4716 111.351 72.7125 112.178L110.355 133.895C111.389 134.515 112.216 135.756 112.216 136.997V180.43C112.009 181.464 110.562 182.292 109.321 181.671Z"/></svg>

<svg xmlns="http://www.w3.org/2000/svg" width="256" height="256" fill="none" viewBox="0 0 256 256"><rect width="256" height="256" fill="#F4F2ED" rx="60"/><path fill="#4C4C4C" d="M216.04 167.81V74.74l-80.66-46.53v35.78l31.65 18.2c1.24.62 1.24 2.48 0 3.1l-37.65 21.72a3.6 3.6 0 0 1-3.51 0L88.22 85.08c-1.24-.62-1.24-2.48 0-3.1l31.65-18.2V28L39.2 74.54v93.27-.41.41l31.02-17.78v-36.61c0-1.24 1.45-2.28 2.69-1.45l37.64 21.72a3.8 3.8 0 0 1 1.86 3.1v43.43c0 1.24-1.45 2.28-2.69 1.45l-31.64-18.2-31.02 17.79 80.66 46.53 80.66-46.53-31.02-17.79-31.65 18.2c-1.03.62-2.69-.2-2.69-1.45V136.8c0-1.24.62-2.48 1.86-3.1l37.65-21.72c1.03-.62 2.69.2 2.69 1.45v36.6z"/><path fill="#000" d="m127.52 228 80.66-46.53-31.02-17.8-31.65 18.2c-1.03.63-2.68-.2-2.68-1.44V137a3.4 3.4 0 0 1 1.86-3.1l37.64-21.72c1.03-.62 2.69.2 2.69 1.45v36.6l31.02 17.8v-93.3l-88.52 51.09z"/><path fill="gray" d="M135.17 28v35.78l31.65 18.2c1.24.62 1.24 2.48 0 3.1l-37.64 21.72a3.6 3.6 0 0 1-3.52 0L88.22 85.08c-1.24-.62-1.24-2.48 0-3.1l31.65-18.2V28L39.2 74.54l88.52 51.08 88.52-51.08z"/><path fill="#4C4C4C" d="m109.32 181.67-31.64-18.2-31.03 17.79 80.66 46.53V125.62L39 74.74v93.28-.41.41l31.02-17.79v-36.6c0-1.24 1.45-2.28 2.7-1.45l37.64 21.72a3.8 3.8 0 0 1 1.86 3.1v43.43c-.21 1.03-1.66 1.86-2.9 1.24"/></svg>
